X: 42336
T: Wee Tod
R: jig
M: 6/8
K: Amajor
|:B|AAA FEE|AAA fee|cee fee|BcB AFE|
AAA FEE|AAA fee|cee fee|BcB A2:|
|:B|cee ~e3|cee fee|f2e f2e|f2 e cBB|
AAA FEE|AAA fee|cee fee|BcB A2:|

